X:1
T:Title
%%score [ 1 2 3 4 ]
L:1/8
Q:1/4=60
M:3/4
K:C
V:1 treble-8 nm="Tenor I"
V:2 treble-8 nm="Tenor II"
V:3 bass nm="Bass I"
V:4 bass nm="Bass II"
V:1
"^Langsam"!pp! e3 e ee | f>e e2 z2 | A4 d2 | B4 z2 |!<(! e3 e ee!<)! |!>(! g>f e2!>)! z2 | A4 d2 | %7
w: Sil- ber- blau- er|Mon- den- schein|fällt her-|ab,|senkt so man- chen|Strahl hin- ein|in das|
 !fermata!B4!mf! d>d | d3/2c/4B/4 B2!>(! f>!>)!f | e4 z2 |!pp! e4 d2 | c4!mf! d>d | %12
w: Grab. Freund des|Schlum- * * mers, lie- ber|Mond,|schwei- ge|nicht, ob im|
 d3/2c/4B/4 B2!>(! f>!>)!f | e4 z2 |!pp! e4 d2 | c4 !fermata!z2 |!ppp! c4 c2 | .c2 z2 z2 | c4 c2 | %19
w: Gra- * * be Dun- kel|wohnt,|o- der|Licht.|Al- les|stumm?|al- les|
 .c2 z2 z2 | =d2 z2 z2 | _e4 !fermata!z2 ||[K:Ab]!pp! e4 e>e | _f2 e2 z2 | (A4 d>)_c | %25
w: stumm?|stumm?|stumm?|Nun stil- les|Grab _|re- * de|
 (_c2 B2) z2 | e3 e ee | _g>_f e2 z2 | (A4 d>)_c | (_c2 B)!mf! z d>d | d3 _c/!>(!B/ _f>!>)!f | %31
w: du, _|zogst so man- chen|Strahl hin- ab|in _ die|Ruh, _ birgst gar|man- chen * Mon- den-|
 e4 z2 |!pp! e4 d2 | _c4!mf! d>d | d3 _c/!>(!B/ _f>!>)!f | e4 !fermata!z2 | z6 |!ff! e4 _f2 | e6 || %39
w: blick,|sil- ber-|blau, gib nur|ei- nen * Strahl zu-|rück!||Komm und|schau,|
[K:Amin]!p!!<(! =e4 e2!<)! |!ff!!>(! f6- | f2!>)! z2 z2 |!pp! E6 | ^G6 |!<(! A6-!<)! | %45
w: komm und|schau,|_|komm|und|schau!|
!>(! A2!>)! z2 z2 |] %46
w: _|
V:2
!pp! c3 c cc | d>c c2 z2 | A4 _BA | ^G4 z2 |!<(! c3 c BA!<)! |!>(! A>d c2!>)! z2 | A4 _BA | %7
w: Sil- ber- blau- er|Mon- den- schein|fällt her- *|ab,|senkt so man- chen|Strahl hin- ein|in das _|
 !fermata!^G4!mf! =B>B | B3/2A/4^G/4 G2!>(! B>!>)!B | B4 z2 |!pp! c4 B2 | c4!mf! ^G>G | %12
w: Grab. Freund des|Schlum- * * mers, lie- ber|Mond,|schwei- ge|nicht, ob im|
 ^G2 G2!>(! B>!>)!B | B4 z2 |!pp! c4 B2 | c4 !fermata!z2 |!ppp! _A4 A2 | ._B2 z2 z2 | G4 G2 | %19
w: Gra- be Dun- kel|wohnt,|o- der|Licht.|Al- les|stumm?|al- les|
 ._A2 z2 z2 | _c2 z2 z2 | _B4 !fermata!z2 ||[K:Ab]!pp! _c4 c>c | (d2 _c2) z2 | (A4 __B>)A | %25
w: stumm?|stumm?|stumm?|Nun stil- les|Grab _|re- * de|
 (A2 G2) z2 | _c3 c BA | A>d _c2 z2 | (A4 __B>)A | (A2 G)!mf! z B>B | B3 A/G/!>(! B>!>)!B | B4 z2 | %32
w: du, _|zogst so man- chen|Strahl hin- ab|in _ die|Ruh, _ birgst gar|man- chen * Mon- den-|blick,|
!pp! _c4 B2 | _c4!mf! =G>G | G3 G!>(! B>!>)!B | B4 !fermata!z2 | z6 |!ff! _c4 c2 | _c6 || %39
w: sil- ber-|blau, gib nur|ei- nen Strahl zu-|rück!||Komm und|schau,|
[K:Amin]!p!!<(! =B4 c2!<)! |!ff!!>(! d6- | d2!>)! z2 z2 |!pp! E6 | E6 |!<(! E6-!<)! | %45
w: komm und|schau,|_|komm|und|schau!|
!>(! E2!>)! z2 z2 |] %46
w: _|
V:3
!pp! E,3 E, E,C | B,>E, E,2 z2 | F,4 F,2 | E,4 z2 |!<(! E,3 E, ^G,A,!<)! |!>(! A,>A, A,2!>)! z2 | %6
w: Sil- ber- blau- er|Mon- den- schein|fällt her-|ab,|senkt so man- chen|Strahl hin- ein|
 (F,3 E,) D,2 | !fermata!E,4!mf! F,>F, | F,2 F,2!>(! ^G,>!>)!G, | ^G,4 z2 |!pp! =G,4 F,2 | %11
w: in * das|Grab. Freund des|Schlum- mers, lie- ber|Mond,|schwei- ge|
 E,4!mf! F,>F, | F,2 F,2!>(! ^G,>!>)!G, | ^G,4 z2 |!pp! =G,4 F,2 | E,4 !fermata!z2 |!ppp! C,4 C,2 | %17
w: nicht, ob im|Gra- be Dun- kel|wohnt,|o- der|Licht.|Al- les|
 .C,2 z2 z2 | C,4 C,2 | .C,2 z2 z2 | _A,2 z2 z2 | G,4 !fermata!z2 ||[K:Ab]!pp! A,4 A,>_C | %23
w: stumm?|al- les|stumm?|stumm?|stumm?|Nun stil- les|
 (B,2 E,2) z2 | _F,4 F,2 | E,4 z2 | E,3 E, G,A, | A,>A, A,2 z2 | _F,4 F,2 | E,4!mf! _F,>F, | %30
w: Grab _|re- de|du,|zogst so man- chen|Strahl hin- ab|in die|Ruh, birgst gar|
 _F,3 F,!>(! =G,>!>)!G, | G,4 z2 |!pp! _G,4 _F,2 | E,4!mf! _F,>F, | _F,3 F,!>(! =G,>!>)!G, | %35
w: man- chen Mon- den-|blick,|sil- ber-|blau, gib nur|ei- nen Strahl zu-|
 G,4 !fermata!z2 | z6 |!ff! _G,4 __A,2 | _G,6 ||[K:Amin]!p!!<(! =E,4 A,2!<)! |!ff!!>(! A,6- | %41
w: rück!||Komm und|schau,|komm und|schau,|
 A,2!>)! z2 z2 |!pp! E,6 | B,,6 |!<(! ^C,6-!<)! |!>(! C,2!>)! z2 z2 |] %46
w: _|komm|und|schau!|_|
V:4
!pp! A,,3 A,, A,,A,, | ^G,,>A,, A,,2 z2 | F,4 D,2 | E,4 z2 |!<(! A,,3 A,, B,,C,!<)! | %5
w: Sil- ber- blau- er|Mon- den- schein|fällt her-|ab,|senkt so man- chen|
!>(! D,>D, A,,2!>)! z2 | F,,4 F,,2 | !fermata!E,,4!mf! D,>D, | D,2 D,2!>(! D,>!>)!D, | D,4 z2 | %10
w: Strahl hin- ein|in das|Grab. Freund des|Schlum- mers, lie- ber|Mond,|
!pp! C,4 G,,2 | C,4!mf! B,,>B,, | B,,3/2C,/4D,/4 D,2!>(! D,>!>)!D, | D,4 z2 |!pp! C,4 G,,2 | %15
w: schwei- ge|nicht, ob im|Gra- * * be Dun- kel|wohnt,|o- der|
 C,4 !fermata!z2 |!ppp! _A,,4 A,,2 | ._B,,2 z2 z2 | G,,4 G,,2 | ._A,,2 z2 z2 | [_F,,_F,]2 z2 z2 | %21
w: Licht.|Al- les|stumm?|al- les|stumm?|stumm?|
 [_E,,_E,]4 !fermata!z2 ||[K:Ab]!pp! A,,4 A,,>A,, | (G,,2 A,,2) z2 | _F,4 D,2 | E,4 z2 | %26
w: stumm?|Nun stil- les|Grab _|re- de|du,|
 A,,3 A,, B,,_C, | D,>D, A,,2 z2 | (_F,3 E,) D,2 | E,4!mf! D,>D, | D,3 D,!>(! D,>!>)!D, | D,4 z2 | %32
w: zogst so man- chen|Strahl hin- ab|in * die|Ruh, birgst gar|man- chen Mon- den-|blick,|
!pp! _C,4 _G,,2 | _C,4!mf! B,,>B,, | B,,3 _C,/D,/!>(! D,>!>)!D, | D,4 !fermata!z2 |!ff! _C,6- | %37
w: sil- ber-|blau, gib nur|ei- nen * Strahl zu-|rück!|Komm|
 C,4 _F,,2 | _C,6 ||[K:Amin]!p!!<(! ^G,,4 =A,,2!<)! |!ff!!>(! D,6- | D,2!>)! z2 z2 |!pp! [E,,E,]6 | %43
w: _ und|schau,|komm und|schau,|_|komm|
 E,,6 |!<(! A,,6-!<)! |!>(! A,,2!>)! z2 z2 |] %46
w: und|schau!|_|

